!!!OTL: Jesus Christus nostra salus
**kern
*staff1
=--
*clefC1
*k[]
1dd
1cc
=-
2a
2g
2a
2b
=-
1cc
2b
2cc
=-
2a
2g
0a
=-
2a
2b
2cc
2cc
=-
2a
2g
2e
2f
=-
2e
2d
2c
2d
=-
!!linebreak:original
2r
4e
4e
2f
2f
=-
1f
1e
=-
2f
2g
1a
=-
2a
2b
1cc
=-
2cc
2a
2g
2e
=-
2f
2e
2d
2c
=-
0e
=-=
*-
!!title: @{OTL}, @{GTL}, ed. @{ENC}
!!!pag:
!!!GTL: Hymnbook C
!!!EFL: 
!!!YEM: Creative Commons CC/BY/NC/SA 4.0
!!!ENC: Marcin Konik
!!!END: 2015-0m-dd
!!!EED: Marcin Konik
!!!EEV: 
!!!ONB: Encoded in vim by Marcin Konik
!!!CharacterEncoding: utf-8
!!!RDF**kern: l=long note in original notation
!!!RDF**kern: i=editorial accidental
!!muse2ps: z14jc180F
!!!COM: Anonim
!!!CDT: [?]
!!!TXO: Polish
!!!ODT: 
!!!GTL: Hymnbook C
!!!ARL: Opactwo św. Wojciecha, Staniątki 
!!!voices:	1
